src/icons/svg/gears.svg

<?xml version="1.0" encoding="UTF-8"?>
<svg width="40px" height="37px" viewBox="0 0 40 37" version="1.1" xmlns="http://www.w3.org/2000/svg"
>
    <path d="M18.6666666,18.3333333 C18.6666666,16.861111 18.1458333,15.6041666 17.1041666,14.5624999 C16.0625,13.5208333 14.8055555,12.9999999 13.3333333,12.9999999 C11.8611111,12.9999999 10.6041667,13.5208333 9.56249999,14.5624999 C8.52083332,15.6041666 7.99999999,16.8611111 7.99999999,18.3333333 C7.99999999,19.8055555 8.52083332,21.0624999 9.56249999,22.1041666 C10.6041667,23.1458333 11.8611111,23.6666666 13.3333333,23.6666666 C14.8055555,23.6666666 16.0625,23.1458332 17.1041666,22.1041666 C18.1458333,21.0624999 18.6666666,19.8055555 18.6666666,18.3333333 Z M34.6666666,29 C34.6666666,28.2777777 34.4027777,27.6527777 33.875,27.125 C33.3472222,26.5972222 32.7222222,26.3333333 32,26.3333333 C31.2777778,26.3333333 30.6527778,26.5972222 30.125,27.125 C29.5972222,27.6527778 29.3333333,28.2777778 29.3333333,29 C29.3333333,29.7361111 29.59375,30.3645833 30.1145833,30.8854166 C30.6354166,31.40625 31.2638888,31.6666666 32,31.6666666 C32.7361111,31.6666666 33.3645833,31.4062499 33.8854167,30.8854166 C34.40625,30.3645833 34.6666666,29.7361111 34.6666666,29 Z M34.6666666,7.66666662 C34.6666666,6.94444439 34.4027777,6.3194444 33.875,5.79166664 C33.3472222,5.26388888 32.7222222,4.99999996 32,4.99999996 C31.2777778,4.99999996 30.6527778,5.26388883 30.125,5.79166664 C29.5972222,6.31944445 29.3333333,6.94444444 29.3333333,7.66666662 C29.3333333,8.40277773 29.59375,9.03124995 30.1145833,9.5520833 C30.6354166,10.0729166 31.2638888,10.3333333 32,10.3333333 C32.7361111,10.3333333 33.3645833,10.0729166 33.8854167,9.5520833 C34.40625,9.03125 34.6666666,8.40277777 34.6666666,7.66666662 Z M26.6666667,16.4375 L26.6666667,20.2916666 C26.6666667,20.4305555 26.6180555,20.5659722 26.5208333,20.6979166 C26.4236111,20.8298611 26.3125,20.9027777 26.1875,20.9166666 L22.9583333,21.4166667 C22.8055555,21.9027778 22.5833333,22.4305555 22.2916667,23 C22.7638889,23.6666666 23.3888889,24.4652777 24.1666666,25.3958333 C24.2638889,25.5347222 24.3125,25.6736111 24.3125,25.8125 C24.3125,25.9791666 24.2638889,26.1111111 24.1666666,26.2083333 C23.8472222,26.625 23.2743055,27.2465277 22.4479166,28.0729166 C21.6215278,28.8993055 21.0763889,29.3125 20.8125,29.3125 C20.6597222,29.3125 20.5138889,29.2638889 20.375,29.1666666 L17.9791666,27.2916666 C17.4652777,27.5555555 16.9305555,27.7708333 16.375,27.9375 C16.2222222,29.4375 16.0625,30.5138889 15.8958333,31.1666667 C15.7986111,31.5 15.5902777,31.6666667 15.2708333,31.6666667 L11.3958333,31.6666667 C11.2430555,31.6666667 11.1041667,31.6145834 10.9791667,31.5104167 C10.8541667,31.40625 10.7847222,31.2847223 10.7708333,31.1458334 L10.2916667,27.9583334 C9.81944445,27.8194445 9.29861111,27.6041667 8.72916665,27.3125 L6.27083333,29.1666667 C6.17361111,29.2638889 6.03472223,29.3125 5.85416668,29.3125 C5.70138891,29.3125 5.55555558,29.2569445 5.41666668,29.1458334 C3.41666669,27.2986111 2.41666669,26.1875 2.41666669,25.8125 C2.41666669,25.6875 2.4652778,25.5555556 2.56250003,25.4166667 C2.70138892,25.2222223 2.98611114,24.8541667 3.41666668,24.3125 C3.84722222,23.7708334 4.17361111,23.3472223 4.39583335,23.0416667 C4.07638891,22.4305556 3.83333335,21.8611112 3.66666668,21.3333334 L0.5,20.8333334 C0.361111115,20.8194445 0.243055556,20.7534722 0.145833333,20.6354167 C0.0486111111,20.5173612 0,20.3819445 0,20.2291667 L0,16.375 C0,16.2361111 0.0486111111,16.1006945 0.145833333,15.96875 C0.243055556,15.8368056 0.354166665,15.7638889 0.479166662,15.75 L3.70833334,15.25 C3.86111112,14.7638889 4.08333333,14.2361111 4.375,13.6666667 C3.90277779,13 3.27777779,12.2013889 2.5,11.2708334 C2.40277779,11.1180556 2.35416668,10.9791667 2.35416668,10.8541667 C2.35416668,10.6875 2.40277779,10.5486112 2.5,10.4375001 C2.80555558,10.0208334 3.37500003,9.40277784 4.20833335,8.58333339 C5.04166668,7.76388894 5.59027779,7.35416671 5.85416668,7.35416671 C6.00694445,7.35416671 6.15277779,7.40277783 6.29166668,7.50000003 L8.68750003,9.37500003 C9.15972224,9.12500004 9.69444446,8.90277782 10.2916667,8.70833338 C10.4444445,7.20833337 10.6041667,6.13888892 10.7708334,5.50000003 C10.8680556,5.1666667 11.0763889,5.00000003 11.3958334,5.00000003 L15.2708333,5.00000003 C15.4236111,5.00000003 15.5625,5.05208336 15.6875,5.15625002 C15.8125,5.26041668 15.8819444,5.38194446 15.8958333,5.52083335 L16.375,8.70833334 C16.8472222,8.84722224 17.3680555,9.06250002 17.9375,9.35416668 L20.3958333,7.50000003 C20.5069444,7.40277779 20.6458333,7.35416668 20.8125,7.35416668 C20.9652777,7.35416668 21.1111111,7.40972224 21.25,7.52083336 C23.25,9.36805558 24.25,10.4791667 24.25,10.8541667 C24.25,10.9791667 24.2013889,11.1111111 24.1041666,11.25 C23.9375,11.4722222 23.6458333,11.8472222 23.2291666,12.375 C22.8125,12.9027778 22.5,13.3194445 22.2916666,13.625 C22.6111111,14.2916667 22.8472222,14.8611111 23,15.3333334 L26.1666666,15.8125 C26.3055555,15.8402778 26.4236111,15.9131945 26.5208333,16.03125 C26.6180555,16.1493056 26.6666667,16.2847222 26.6666667,16.4375 L26.6666667,16.4375 Z M40,27.5416667 L40,30.4583333 C40,30.6805555 38.9652778,30.8958333 36.8958333,31.1041667 C36.7291667,31.4791667 36.5208333,31.8402778 36.2708333,32.1875 C36.9791667,33.7569445 37.3333333,34.7152778 37.3333333,35.0625 C37.3333333,35.1180556 37.3055556,35.1666667 37.25,35.2083333 C35.5555556,36.1944445 34.6944445,36.6875 34.6666667,36.6875 C34.5555556,36.6875 34.2361111,36.3611111 33.7083334,35.7083334 C33.1805556,35.0555556 32.8194445,34.5833334 32.625,34.2916667 C32.3472222,34.3194445 32.1388889,34.3333333 32,34.3333333 C31.8611111,34.3333333 31.6527778,34.3194445 31.375,34.2916667 C31.1805556,34.5833334 30.8194445,35.0555556 30.2916667,35.7083334 C29.7638889,36.3611111 29.4444445,36.6875 29.3333334,36.6875 C29.3055556,36.6875 28.4444445,36.1944445 26.75,35.2083333 C26.6944445,35.1666667 26.6666667,35.1180556 26.6666667,35.0625 C26.6666667,34.7152778 27.0208334,33.7569445 27.7291667,32.1875 C27.4791667,31.8402778 27.2708334,31.4791667 27.1041667,31.1041667 C25.0347222,30.8958333 24,30.6805555 24,30.4583333 L24,27.5416667 C24,27.3194444 25.0347222,27.1041667 27.1041667,26.8958333 C27.2847222,26.4930555 27.4930556,26.1319444 27.7291667,25.8125 C27.0208334,24.2430555 26.6666667,23.2847222 26.6666667,22.9375 C26.6666667,22.8819444 26.6944445,22.8333333 26.75,22.7916666 C26.8055556,22.7638889 27.0486111,22.625 27.4791667,22.375 C27.9097222,22.125 28.3194445,21.8888889 28.7083334,21.6666667 C29.0972222,21.4444444 29.3055556,21.3333333 29.3333334,21.3333333 C29.4444445,21.3333333 29.7638889,21.65625 30.2916667,22.3020833 C30.8194444,22.9479167 31.1805556,23.4166667 31.375,23.7083334 C31.6527778,23.6805556 31.8611111,23.6666667 32,23.6666667 C32.1388889,23.6666667 32.3472222,23.6805556 32.625,23.7083334 C33.3333333,22.7222222 33.9722222,21.9444445 34.5416667,21.375 L34.6666667,21.3333333 C34.7222222,21.3333333 35.5833333,21.8194445 37.25,22.7916667 C37.3055556,22.8333333 37.3333333,22.8819445 37.3333333,22.9375 C37.3333333,23.2847222 36.9791667,24.2430556 36.2708333,25.8125 C36.5069445,26.1319445 36.7152778,26.4930556 36.8958333,26.8958334 C38.9652778,27.1041667 40,27.3194445 40,27.5416667 L40,27.5416667 Z M40,6.20833332 L40,9.12499999 C40,9.34722221 38.9652778,9.56249999 36.8958333,9.77083333 C36.7291667,10.1458333 36.5208333,10.5069444 36.2708333,10.8541667 C36.9791667,12.4236111 37.3333333,13.3819445 37.3333333,13.7291667 C37.3333333,13.7847222 37.3055556,13.8333333 37.25,13.875 C35.5555556,14.8611111 34.6944445,15.3541667 34.6666667,15.3541667 C34.5555556,15.3541667 34.2361111,15.0277778 33.7083334,14.375 C33.1805556,13.7222222 32.8194445,13.25 32.625,12.9583334 C32.3472222,12.9861111 32.1388889,13 32,13 C31.8611111,13 31.6527778,12.9861111 31.375,12.9583334 C31.1805556,13.25 30.8194445,13.7222222 30.2916667,14.375 C29.7638889,15.0277778 29.4444445,15.3541667 29.3333334,15.3541667 C29.3055556,15.3541667 28.4444445,14.8611111 26.75,13.875 C26.6944445,13.8333333 26.6666667,13.7847222 26.6666667,13.7291667 C26.6666667,13.3819445 27.0208334,12.4236111 27.7291667,10.8541667 C27.4791667,10.5069445 27.2708334,10.1458333 27.1041667,9.77083333 C25.0347222,9.56249999 24,9.34722221 24,9.12499999 L24,6.20833332 C24,5.9861111 25.0347222,5.77083332 27.1041667,5.56249998 C27.2847222,5.15972219 27.4930556,4.79861108 27.7291667,4.47916664 C27.0208334,2.90972218 26.6666667,1.95138885 26.6666667,1.60416663 C26.6666667,1.54861108 26.6944445,1.5 26.75,1.4583333 C26.8055556,1.43055552 27.0486111,1.29166664 27.4791667,1.04166665 C27.9097222,0.791666653 28.3194445,0.555555547 28.7083334,0.333333328 C29.0972222,0.111111109 29.3055556,0 29.3333334,0 C29.4444445,0 29.7638889,0.322916672 30.2916667,0.968750016 C30.8194444,1.61458336 31.1805556,2.08333336 31.375,2.37500003 C31.6527778,2.34722226 31.8611111,2.33333337 32,2.33333337 C32.1388889,2.33333337 32.3472222,2.34722226 32.625,2.37500003 C33.3333333,1.38888891 33.9722222,0.611111132 34.5416667,0.0416666979 L34.6666667,0 C34.7222222,0 35.5833333,0.486111148 37.25,1.45833337 C37.3055556,1.5 37.3333333,1.54861115 37.3333333,1.6041667 C37.3333333,1.95138892 36.9791667,2.90972225 36.2708333,4.47916671 C36.5069445,4.79861115 36.7152778,5.15972226 36.8958333,5.56250005 C38.9652778,5.7708334 40,5.98611118 40,6.2083334 L40,6.20833332 Z"
          id="形状"></path>
</svg>

<svg width="40" height="37" xmlns="http://www.w3.org/2000/svg"><path d="M18.667 18.333c0-1.472-.521-2.729-1.563-3.77C16.063 13.52 14.806 13 13.334 13c-1.473 0-2.73.52-3.772 1.562C8.521 15.604 8 16.862 8 18.333c0 1.473.52 2.73 1.562 3.771 1.042 1.042 2.3 1.563 3.771 1.563 1.473 0 2.73-.521 3.771-1.563 1.042-1.042 1.563-2.298 1.563-3.77zm16 10.667c0-.722-.264-1.347-.792-1.875s-1.153-.792-1.875-.792-1.347.264-1.875.792-.792 1.153-.792 1.875c0 .736.26 1.365.782 1.885.52.521 1.149.782 1.885.782a2.57 2.57 0 0 0 1.885-.782c.521-.52.782-1.149.782-1.885zm0-21.333c0-.723-.264-1.348-.792-1.875C33.347 5.264 32.722 5 32 5s-1.347.264-1.875.792c-.528.527-.792 1.152-.792 1.875 0 .736.26 1.364.782 1.885.52.52 1.149.781 1.885.781a2.57 2.57 0 0 0 1.885-.78c.521-.522.782-1.15.782-1.886zm-8 8.77v3.855a.678.678 0 0 1-.146.406c-.097.132-.209.205-.334.219l-3.229.5A10.268 10.268 0 0 1 22.292 23a39.197 39.197 0 0 0 1.875 2.396.723.723 0 0 1 .145.416.535.535 0 0 1-.145.396c-.32.417-.893 1.039-1.72 1.865-.825.826-1.37 1.24-1.634 1.24a.751.751 0 0 1-.438-.146l-2.396-1.875a9.446 9.446 0 0 1-1.604.645c-.153 1.5-.313 2.577-.48 3.23-.096.333-.305.5-.624.5h-3.875a.635.635 0 0 1-.417-.157.537.537 0 0 1-.208-.364l-.48-3.188a9.137 9.137 0 0 1-1.562-.645l-2.458 1.854c-.097.097-.236.145-.417.145a.69.69 0 0 1-.437-.166c-2-1.847-3-2.959-3-3.334 0-.125.048-.256.146-.395.138-.195.423-.563.854-1.105.43-.541.757-.965.979-1.27-.32-.611-.563-1.18-.73-1.709l-3.166-.5a.514.514 0 0 1-.354-.198A.62.62 0 0 1 0 20.23v-3.854c0-.139.049-.274.146-.406.097-.132.208-.205.333-.219l3.23-.5c.152-.486.374-1.014.666-1.583A39.197 39.197 0 0 0 2.5 11.27a.795.795 0 0 1-.146-.417.61.61 0 0 1 .146-.416c.306-.417.875-1.035 1.708-1.855.834-.82 1.382-1.229 1.646-1.229.153 0 .299.049.438.146l2.396 1.875c.472-.25 1.006-.472 1.604-.667.152-1.5.312-2.57.479-3.208.097-.333.305-.5.625-.5h3.875c.153 0 .291.052.416.156a.537.537 0 0 1 .209.365l.479 3.187c.472.14.993.355 1.563.646L20.395 7.5a.61.61 0 0 1 .416-.146.69.69 0 0 1 .438.167c2 1.847 3 2.958 3 3.333a.698.698 0 0 1-.146.396c-.166.222-.458.597-.875 1.125-.416.528-.729.944-.937 1.25.32.667.555 1.236.708 1.708l3.167.48c.139.027.257.1.354.218a.62.62 0 0 1 .146.407zM40 27.543v2.916c0 .223-1.035.438-3.104.646a6.074 6.074 0 0 1-.625 1.084c.708 1.569 1.062 2.527 1.062 2.874 0 .056-.027.105-.083.146-1.694.986-2.556 1.48-2.583 1.48-.111 0-.43-.327-.959-.98-.527-.652-.889-1.125-1.083-1.416a6.882 6.882 0 0 1-.625.041c-.139 0-.347-.014-.625-.041-.194.291-.556.764-1.083 1.416-.528.653-.848.98-.959.98-.027 0-.889-.494-2.583-1.48-.056-.041-.083-.09-.083-.145 0-.348.354-1.306 1.062-2.876a6.074 6.074 0 0 1-.625-1.083c-2.07-.208-3.104-.423-3.104-.646v-2.916c0-.223 1.035-.438 3.104-.646.18-.403.39-.764.625-1.084-.708-1.569-1.062-2.527-1.062-2.875 0-.055.027-.104.083-.145.056-.028.299-.167.73-.417.43-.25.84-.486 1.228-.708.39-.223.598-.334.625-.334.111 0 .43.323.959.97.527.645.889 1.114 1.083 1.405.278-.027.486-.041.625-.041s.347.014.625.041c.708-.986 1.347-1.764 1.917-2.333l.125-.042c.055 0 .916.486 2.583 1.459.056.041.083.09.083.145 0 .348-.354 1.306-1.062 2.875.236.32.444.681.625 1.084 2.07.208 3.104.423 3.104.646zm0-21.334v2.917c0 .222-1.035.437-3.104.646a6.074 6.074 0 0 1-.625 1.083c.708 1.57 1.062 2.528 1.062 2.875 0 .056-.027.104-.083.146-1.694.986-2.556 1.48-2.583 1.48-.111 0-.43-.327-.959-.98-.527-.653-.889-1.125-1.083-1.417A6.882 6.882 0 0 1 32 13c-.139 0-.347-.014-.625-.042-.194.292-.556.764-1.083 1.417-.528.653-.848.98-.959.98-.027 0-.889-.494-2.583-1.48-.056-.042-.083-.09-.083-.146 0-.347.354-1.305 1.062-2.875a6.074 6.074 0 0 1-.625-1.083C25.034 9.562 24 9.347 24 9.125V6.208c0-.222 1.035-.437 3.104-.646.18-.402.39-.763.625-1.083-.708-1.57-1.062-2.528-1.062-2.875 0-.055.027-.104.083-.146.056-.027.299-.166.73-.416.43-.25.84-.486 1.228-.709.39-.222.598-.333.625-.333.111 0 .43.323.959.969.527.646.889 1.114 1.083 1.406.278-.028.486-.042.625-.042s.347.014.625.042c.708-.986 1.347-1.764 1.917-2.333L34.667 0c.055 0 .916.486 2.583 1.458.056.042.083.09.083.146 0 .347-.354 1.306-1.062 2.875.236.32.444.68.625 1.084 2.07.208 3.104.423 3.104.645z"/></svg>
